app/dist/common/images/alignment-healthcare.svg

<svg height="18" viewBox="0 0 18 18" width="18" xmlns="http://www.w3.org/2000/svg"><path d="m0 0h18v18h-18z" fill="#f0f3fa"/><path d="m4 7h4v1h-4z" fill="#00a2a5"/><path d="m4 8.5h3v1h-3zm7 0h3v1h-3zm-3 0h2v1h-2z" fill="#01bff1"/><path d="m7 14v-3h1v3zm0-7v-3h1v3zm0 3v-2h1v2z" fill="#f09927"/><path d="m10 14v-3h1v3zm0-7v-3h1v3zm0 3v-2h1v2z" fill="#ee4d23"/><path d="m4 10h4v1h-4z" fill="#0070b4"/><path d="m10 7h4v1h-4z" fill="#00a2a5"/><path d="m9.5 4v4h-1v-4zm0 6v4h-1v-4z" fill="#66b444"/><path d="m10 10h4v1h-4z" fill="#0070b4"/></svg>

<!-- by TradingView --><svg width="18" height="18" viewBox="0 0 18 18" xmlns="http://www.w3.org/2000/svg"><path fill="#F0F3FA" d="M0 0h18v18H0z"/><path fill="#00A2A5" d="M4 7h4v1H4z"/><path d="M4 8.5h3v1H4v-1ZM11 8.5h3v1h-3v-1ZM8 8.5h2v1H8v-1Z" fill="#01BFF1"/><path fill="#F09927" d="M7 14v-3h1v3zM7 7V4h1v3zM7 10V8h1v2z"/><path fill="#EE4D23" d="M10 14v-3h1v3zM10 7V4h1v3zM10 10V8h1v2z"/><path fill="#0070B4" d="M4 10h4v1H4z"/><path fill="#00A2A5" d="M10 7h4v1h-4z"/><path d="M9.5 4v4h-1V4h1ZM9.5 10v4h-1v-4h1Z" fill="#66B444"/><path fill="#0070B4" d="M10 10h4v1h-4z"/></svg>
